X:161
T:Foggy Mountain Breakdown
C: arranged by Lee Marcus
N:Transcribed by Lee Marcus
R:bluegrass
L:1/8
Q:1/4=305
M:4/4
K:G
z2 DE GB c2 | [f^c][gd] [gd][gd] [gd][gd] [gd][gd] | [f^c][gd] [gd][gd] [gd][gd] [gd][gd] | 
[f^c][gd] [gd][gd] [gd][gd] =c^A/B/ | G2 GE GF GD | ED EF GA Bd | ed eg fe dc | 
BG AF GE DB, | G,A, B,D GF GD | E2 B,D EG Ad | B2 ^cd dg d^A | AG ED =FE DB, | 
G,2 A,/B,/D G2 E2 | D=F ^FD GA cG | =F^F DC DE ^A,B, | G,A, B,D GB cd | g2 de g2 a2 | 
[ac][bd] [bd][bd] [bd][bd] [bd][bd] | [ac][bd] [bd][bd] [bd][bd] [bd][bd] | [ac][bd] [b2d2] g=f d^A | 
AG GE GA Bd | ee fg eg ae | ab ef ge dg | =fd c^A/B/ GE DB, | G,G, ^A,B, DE GD | 
Ed EE dE Ed | eg ed ^A=A GE | D^A, B,E DB, A,=A, | G,^A, B,D GA BG | A=F ^FB AF =FE | 
D^A, B,E DB, A,=A, | G,2 g^a g=f dc | ^A/B/G cA/B/ GE DB, | G,8 | 


